lg/micron-icon.svg

<svg viewBox="0 0 256 203" version="1.1" xmlns="http://www.w3.org/2000/svg" preserveAspectRatio="xMidYMid" height="1em" width="1em">
  <g>
    <path d="M137.593176,35.4520472 C140.147747,34.3801202 140.407266,36.1222836 138.983296,37.2100074 C137.527732,38.3248115 135.801365,39.6088672 133.693618,40.8861528 C124.432169,46.5007936 115.030805,53.3588696 105.360895,61.0428936 C109.631553,63.6947532 113.201467,67.3736568 115.710855,71.7277467 L116.60146,73.3914926 L129.827911,101.451156 C131.195464,104.188519 133.729725,105.705014 136.67019,105.705014 C139.287949,105.705014 141.570491,104.506796 143.005882,102.317988 L143.503443,101.451156 L156.727637,73.3914926 C161.690094,63.3921063 172.048294,56.4708429 183.965866,56.4708429 C196.021095,56.4708429 206.397348,63.4846305 211.276309,73.6532684 C211.775037,74.8605967 211.854021,75.966374 210.942319,77.2752533 C204.345567,86.8108901 195.866061,96.6408217 185.990756,106.505118 L182.64796,109.794133 L182.652473,92.5823707 L175.699616,107.374963 C168.076523,123.720157 154.249793,133.487105 136.665677,133.487105 C119.709565,133.487105 106.245149,124.405338 98.4718997,109.100917 L97.6317375,107.374963 L90.6788806,92.5823707 L90.6856506,160.04607 C79.5129744,166.256101 69.7416234,170.825879 61.3368329,173.873605 L59.0784729,174.667155 L59.0784729,101.949884 C27.7127609,133.274976 10.3768806,161.016446 20.9517224,175.362215 C32.911365,191.597274 64.9237996,182.690155 112.330454,152.782048 L114.931511,151.129895 C117.005407,149.802962 118.928106,148.645281 120.550665,147.794509 C122.13486,146.961791 123.608478,147.920884 121.563918,149.789422 C120.324996,150.926793 118.614426,152.249212 116.675931,153.576145 C109.797545,158.270057 102.823836,162.790655 95.8842122,167.024708 L90.6879073,170.144751 L90.690164,202.90961 L59.0784729,202.90961 L59.0784729,186.546362 C33.5463004,197.635729 12.2251084,200.610044 3.2322051,187.735637 C-8.81392108,170.478397 13.6364605,132.080105 56.8261013,92.9590319 L59.0784729,90.9349882 L59.0784729,86.7601146 C59.0784729,70.00646 72.6073199,56.4708429 89.3609745,56.4708429 C93.2199117,56.4708429 96.9118539,57.2042667 100.31494,58.5221727 L103.650325,56.2203505 L103.650325,56.2203505 C112.898235,49.9083931 122.568144,44.0387465 132.023669,38.3090147 C134.036635,37.090403 136.045087,36.0997168 137.593176,35.4520472 Z M155.727924,24.7925163 L156.962332,24.1640918 C204.142917,-0.761031557 240.5433,-7.56269039 252.260027,9.21804454 C263.264507,24.9788865 249.609526,57.3935481 216.238581,92.5108068 L214.252881,94.5795399 L214.252881,157.802922 L182.64119,157.802922 L182.645703,123.176295 C175.830504,128.637481 168.588791,134.06933 160.92282,139.424452 L155.146853,143.4391 C147.986092,148.392667 139.622024,154.079364 132.93332,158.281554 L129.487151,160.403756 L129.487151,160.403756 L128.810144,160.808831 C126.803948,162.029699 124.917357,163.036183 123.376039,163.697392 C120.828238,164.789629 120.559692,163.047466 121.965609,161.946202 C123.414402,160.817858 125.258117,159.560882 127.32073,158.209126 L128.880102,157.229723 L128.880102,157.229723 C136.699527,152.535811 148.705109,144.091283 156.486171,138.320931 C214.758379,95.0918082 248.410116,36.6548621 231.979168,18.8225104 C221.443057,7.38708304 194.884718,9.99747957 160.694633,25.7536682 L158.239618,26.9014548 C156.02355,27.9846653 154.055718,28.7429126 152.333864,29.3702719 C150.654888,29.9818345 149.318929,28.8218967 151.602697,27.2444715 C152.705767,26.4826135 154.125133,25.6340986 155.727924,24.7925163 Z" fill="#0090DA"/>
  </g>
</svg>

<svg viewBox="0 0 256 203" xmlns="http://www.w3.org/2000/svg" preserveAspectRatio="xMidYMid" height="1em" width="1em">
  <path d="M137.593 35.452c2.555-1.072 2.814.67 1.39 1.758-1.455 1.115-3.182 2.399-5.29 3.676-9.26 5.615-18.662 12.473-28.332 20.157a30.574 30.574 0 0 1 10.35 10.685l.89 1.663 13.227 28.06c1.367 2.738 3.902 4.254 6.842 4.254 2.618 0 4.9-1.198 6.336-3.387l.497-.867 13.225-28.06c4.962-9.999 15.32-16.92 27.238-16.92 12.055 0 22.431 7.014 27.31 17.182.499 1.208.578 2.313-.334 3.622-6.596 9.536-15.076 19.366-24.951 29.23l-3.343 3.29.004-17.213-6.952 14.793c-7.623 16.345-21.45 26.112-39.034 26.112-16.956 0-30.42-9.082-38.194-24.386l-.84-1.726-6.953-14.793.007 67.464c-11.173 6.21-20.944 10.78-29.35 13.828l-2.258.793V101.95c-31.365 31.325-48.701 59.066-38.126 73.412 11.96 16.235 43.972 7.328 91.378-22.58l2.602-1.652c2.073-1.327 3.996-2.485 5.619-3.335 1.584-.833 3.057.126 1.013 1.994-1.239 1.138-2.95 2.46-4.888 3.787a487.41 487.41 0 0 1-20.792 13.449l-5.196 3.12.002 32.765H59.078v-16.364c-25.532 11.09-46.853 14.064-55.846 1.19-12.046-17.258 10.404-55.656 53.594-94.777l2.252-2.024V86.76c0-16.754 13.53-30.29 30.283-30.29 3.859 0 7.55.734 10.954 2.052l3.335-2.302c9.248-6.312 18.918-12.181 28.374-17.911 2.013-1.219 4.021-2.21 5.57-2.857Zm18.135-10.66 1.234-.628C204.142-.76 240.543-7.563 252.26 9.218c11.005 15.76-2.65 48.176-36.021 83.293l-1.986 2.069v63.223H182.64l.005-34.627a412.59 412.59 0 0 1-21.723 16.248l-5.776 4.015c-7.16 4.954-15.525 10.64-22.214 14.843l-3.446 2.122-.677.405c-2.006 1.22-3.893 2.227-5.434 2.888-2.548 1.093-2.816-.65-1.41-1.75 1.448-1.13 3.292-2.386 5.355-3.738l1.56-.98c7.819-4.693 19.824-13.138 27.605-18.908C214.758 95.09 248.41 36.655 231.98 18.823c-10.536-11.436-37.094-8.826-71.284 6.93l-2.455 1.148c-2.216 1.084-4.184 1.842-5.906 2.47-1.68.61-3.015-.55-.731-2.127 1.103-.761 2.522-1.61 4.125-2.451Z" fill="#0090DA"/>
</svg>
